docs/img/icons/arrow-right.svg

<svg width="40" height="40" viewBox="0 0 40 40" fill="none" xmlns="http://www.w3.org/2000/svg">
    <path d="M40 20C40 8.95431 31.0457 0 20 0C8.95431 0 0 8.95431 0 20C0 31.0457 8.95431 40 20 40C31.0457 40 40 31.0457 40 20Z" fill="white"/>
    <path fill-rule="evenodd" clip-rule="evenodd" d="M16.2929 12.2929C15.9024 12.6834 15.9024 13.3166 16.2929 13.7071L22.5858 20L16.2929 26.2929C15.9024 26.6834 15.9024 27.3166 16.2929 27.7071C16.6834 28.0976 17.3166 28.0976 17.7071 27.7071L24.7071 20.7071C25.0976 20.3166 25.0976 19.6834 24.7071 19.2929L17.7071 12.2929C17.3166 11.9024 16.6834 11.9024 16.2929 12.2929Z" fill="black"/>
</svg>

<svg width="40" height="40" fill="none" xmlns="http://www.w3.org/2000/svg"><path d="M40 20C40 8.954 31.046 0 20 0S0 8.954 0 20s8.954 20 20 20 20-8.954 20-20z" fill="#fff"/><path fill-rule="evenodd" clip-rule="evenodd" d="M16.293 12.293a1 1 0 000 1.414L22.586 20l-6.293 6.293a1 1 0 001.414 1.414l7-7a1 1 0 000-1.414l-7-7a1 1 0 00-1.414 0z" fill="#000"/></svg>
